FlatUX/src/svg/Acorn - Archimedes-content.svg

<svg enable-background="new 0 0 256 256" viewBox="0 0 256 256" xmlns="http://www.w3.org/2000/svg"><path d="m238.727 12h-221.454c-2.916 0-5.273 2.357-5.273 5.273v200.364l21.091 26.363h205.636c2.916 0 5.273-2.357 5.273-5.273v-221.454c0-2.916-2.357-5.273-5.273-5.273z" fill="#35495f"/><path d="m224 32h16v12h-16z" fill="#2b3e51"/><path d="m220 244h-160v-82.133c0-3.244 2.751-5.867 6.154-5.867h147.692c3.403 0 6.154 2.622 6.154 5.867z" fill="#2b3e51"/><path d="m38 12h180v110.2c0 3.207-2.366 5.8-5.294 5.8h-169.412c-2.928 0-5.294-2.593-5.294-5.8z" fill="#1b80bb"/><path d="m180.727 164h-105.454c-2.916 0-5.273 3.251-5.273 7.273v72.727h116v-72.727c0-4.022-2.357-7.273-5.273-7.273zm-63.272 72.727h-36.91v-65.455h36.909v65.455z" fill="#bdc1c6"/></svg>

<svg xmlns="http://www.w3.org/2000/svg" viewBox="0 0 256 256"><path fill="#35495f" d="M238.727 12H17.273A5.27 5.27 0 0 0 12 17.273v200.364L33.091 244h205.636a5.27 5.27 0 0 0 5.273-5.273V17.273A5.27 5.27 0 0 0 238.727 12"/><path fill="#2b3e51" d="M224 32h16v12h-16zm-4 212H60v-82.133c0-3.244 2.751-5.867 6.154-5.867h147.692c3.403 0 6.154 2.622 6.154 5.867z"/><path fill="#1b80bb" d="M38 12h180v110.2c0 3.207-2.366 5.8-5.294 5.8H43.294c-2.928 0-5.294-2.593-5.294-5.8z"/><path fill="#bdc1c6" d="M180.727 164H75.273c-2.916 0-5.273 3.251-5.273 7.273V244h116v-72.727c0-4.022-2.357-7.273-5.273-7.273m-63.272 72.727h-36.91v-65.455h36.909z"/></svg>
